lib/healthicons/icons/outline/specialties/hematology_laboratory.svg

<svg fill="none" height="48" viewBox="0 0 48 48" width="48" xmlns="http://www.w3.org/2000/svg"><g fill="#333"><path clip-rule="evenodd" d="m39 8h-30c-.55229 0-1 .44772-1 1v30c0 .5523.44772 1 1 1h30c.5523 0 1-.4477 1-1v-30c0-.55229-.4477-1-1-1zm-30-2c-1.65685 0-3 1.34315-3 3v30c0 1.6569 1.34315 3 3 3h30c1.6569 0 3-1.3431 3-3v-30c0-1.65685-1.3431-3-3-3z" fill-rule="evenodd"/><path clip-rule="evenodd" d="m20.8 16v.9932c0-.0037-.0001-.0057-.0005-.0057-.0006-.0001-.0018.0035-.0042.0111-.0103.0316-.0429.1318-.1459.3131-.1328.2336-.3228.4993-.5319.7621-.206.2589-.4145.4949-.5728.6673-.0787.0857-.1438.1544-.1886.201-.0223.0233-.0395.0409-.0507.0523l-.012.0123-.0024.0024-.291.2926v12.1983c0 3.0376 2.4624 5.5 5.5 5.5 2.5176 0 4.64-1.6915 5.293-4h-2.1298c-.5617 1.1825-1.767 2-3.1632 2-1.933 0-3.5-1.567-3.5-3.5v-11.3868l.0178-.0194c.1792-.1951.4207-.468.6647-.7746.2408-.3027.5009-.6591.7056-1.0192.0508-.0893.1049-.1901.1566-.2999l3.8437-.0001c.235.6359.6446 1.1691.9625 1.5285.2342.265.466.4875.6491.6517v.8198h2v-1.7841l-.3962-.2987-.0011-.0008-.0083-.0065c-.0088-.0068-.0236-.0184-.0433-.0344-.0397-.0321-.0992-.0814-.1719-.1453-.1467-.1291-.3399-.3115-.5301-.5265-.4265-.4824-.6491-.9182-.6491-1.2036v-.9999z" fill-rule="evenodd"/><path d="m32 28.0909c0 1.6067-1.3431 2.9091-3 2.9091s-3-1.3024-3-2.9091c0-2.5454 3-5.0909 3-5.0909s3 2.5455 3 5.0909z"/><path d="m20 10h9v4h-9z"/></g></svg>

<svg width="48" height="48" viewBox="0 0 48 48" fill="none" xmlns="http://www.w3.org/2000/svg">
<path fill-rule="evenodd" clip-rule="evenodd" d="M39 8H9C8.44771 8 8 8.44772 8 9V39C8 39.5523 8.44772 40 9 40H39C39.5523 40 40 39.5523 40 39V9C40 8.44771 39.5523 8 39 8ZM9 6C7.34315 6 6 7.34315 6 9V39C6 40.6569 7.34315 42 9 42H39C40.6569 42 42 40.6569 42 39V9C42 7.34315 40.6569 6 39 6H9Z" fill="#333333"/>
<path fill-rule="evenodd" clip-rule="evenodd" d="M20.8 16V16.9932C20.8 16.9895 20.7999 16.9875 20.7995 16.9875C20.7989 16.9874 20.7977 16.991 20.7953 16.9986C20.785 17.0302 20.7524 17.1304 20.6494 17.3117C20.5166 17.5453 20.3266 17.811 20.1175 18.0738C19.9115 18.3327 19.703 18.5687 19.5447 18.7411C19.466 18.8268 19.4009 18.8955 19.3561 18.9421C19.3338 18.9654 19.3166 18.983 19.3054 18.9944L19.2934 19.0067L19.291 19.0091L19 19.3017V31.5C19 34.5376 21.4624 37 24.5 37C27.0176 37 29.14 35.3085 29.793 33H27.6632C27.1015 34.1825 25.8962 35 24.5 35C22.567 35 21 33.433 21 31.5V20.1132L21.0178 20.0938C21.197 19.8987 21.4385 19.6258 21.6825 19.3192C21.9233 19.0165 22.1834 18.6601 22.3881 18.3C22.4389 18.2107 22.493 18.1099 22.5447 18.0001L26.3884 18C26.6234 18.6359 27.033 19.1691 27.3509 19.5285C27.5851 19.7935 27.8169 20.016 28 20.1802V21H30V19.2159L29.6038 18.9172L29.6027 18.9164L29.5944 18.9099C29.5856 18.9031 29.5708 18.8915 29.5511 18.8755C29.5114 18.8434 29.4519 18.7941 29.3792 18.7302C29.2325 18.6011 29.0393 18.4187 28.8491 18.2037C28.4226 17.7213 28.2 17.2855 28.2 17.0001V16.0002L20.8 16Z" fill="#333333"/>
<path d="M32 28.0909C32 29.6976 30.6569 31 29 31C27.3431 31 26 29.6976 26 28.0909C26 25.5455 29 23 29 23C29 23 32 25.5455 32 28.0909Z" fill="#333333"/>
<path d="M20 10H29V14H20V10Z" fill="#333333"/>
</svg>
